src/assets/svg/3-login-share-newsletter/3-google.svg

<svg width="44" height="44" viewBox="0 0 44 44" fill="none" xmlns="http://www.w3.org/2000/svg">
<g clip-path="url(#clip0_200_20)">
<path d="M10.1957 18.1488C11.8021 13.1951 16.4311 9.61947 21.9357 9.59102C24.8948 9.57573 27.5729 10.6119 29.6818 12.3192L35.7592 6.17862C32.0198 2.95245 27.2367 0.972598 21.8914 1.00022C13.6141 1.043 6.51202 5.80179 3.12173 12.7349L10.1957 18.1488Z" fill="#EA4335"/>
<path d="M29.1254 32.4853C27.2246 33.7267 24.8046 34.3947 22.064 34.4089C16.5804 34.4372 11.9293 30.9367 10.2552 26.0295L3.2139 31.4334C6.67147 38.3433 13.8222 43.0425 22.1084 42.9997C27.2408 42.9732 32.1357 41.1233 35.7909 37.6782L29.1254 32.4853Z" fill="#34A853"/>
<path d="M35.7909 37.6782C39.6135 34.0753 42.0803 28.7277 42.045 21.8964C42.0386 20.6555 41.8408 19.3201 41.548 18.0807L21.9801 18.1818L22.022 26.2954L33.2855 26.2371C32.7438 28.9684 31.263 31.0893 29.1254 32.4853L35.7909 37.6782Z" fill="#4A90E2"/>
<path d="M10.2552 26.0295C9.83113 24.7864 9.59808 23.4531 9.5909 22.0641C9.58383 20.6961 9.79639 19.3799 10.1956 18.1488L3.12167 12.7349C1.7303 15.5604 0.982699 18.7405 1.00011 22.1085C1.01747 25.4677 1.8122 28.6322 3.21388 31.4334L10.2552 26.0295Z" fill="#FBBC05"/>
</g>
<defs>
<clipPath id="clip0_200_20">
<rect width="42" height="42" fill="white" transform="translate(0.891602 1.10876) rotate(-0.2961)"/>
</clipPath>
</defs>
</svg>

<svg width="44" height="44" fill="none" xmlns="http://www.w3.org/2000/svg"><g clip-path="url(#a)"><path d="M10.196 18.149a12.385 12.385 0 0 1 11.74-8.558 12.14 12.14 0 0 1 7.746 2.728l6.077-6.14C32.02 2.952 27.237.973 21.891 1a20.945 20.945 0 0 0-18.77 11.735l7.075 5.414Z" fill="#EA4335"/><path d="M29.125 32.485c-1.9 1.242-4.32 1.91-7.061 1.924a12.385 12.385 0 0 1-11.809-8.38l-7.041 5.404A20.938 20.938 0 0 0 22.108 43c5.133-.027 10.028-1.877 13.683-5.322l-6.666-5.193Z" fill="#34A853"/><path d="M35.79 37.678c3.824-3.603 6.29-8.95 6.255-15.782-.006-1.24-.204-2.576-.497-3.815l-19.568.1.042 8.114 11.264-.058c-.542 2.731-2.023 4.852-4.16 6.248l6.665 5.193Z" fill="#4A90E2"/><path d="M10.255 26.03a12.46 12.46 0 0 1-.664-3.966 12.462 12.462 0 0 1 .605-3.915l-7.074-5.414C1.73 15.56.982 18.74 1 22.108c.017 3.36.812 6.524 2.214 9.325l7.041-5.404Z" fill="#FBBC05"/></g><defs><clipPath id="a"><path fill="#fff" transform="rotate(-.296 214.992 -171.972)" d="M0 0h42v42H0z"/></clipPath></defs></svg>
